archdroid-icon-theme/Archdroid-LightBlue/status/scalable/semi-starred-rtl.svg

<svg fill="#03A9F4" height="24" viewBox="0 0 24 24" width="24" xmlns="http://www.w3.org/2000/svg"><g fill="#03A9F4"><path d="m12 2-2.810547 6.630859-7.189453.609375 5.460938 4.730469-1.640625 7.029297 6.179687-3.730469z" opacity=".3"/><path d="m12 2v15.269531l6.179688 3.730469-1.640625-7.029297 5.460937-4.730469-7.189453-.609375z"/></g></svg>

<svg fill="#03A9F4" height="24" version="1.1" viewBox="0 0 24 24" width="24" xmlns="http://www.w3.org/2000/svg"><path d="M12 2L9.189453 8.630859 2 9.240234 7.460938 13.970703 5.820313 21 12 17.269531 12 2z" opacity=".3"/><path d="M12 2L12 17.269531 18.179688 21 16.539063 13.970703 22 9.240234 14.810547 8.630859 12 2z" fill="#03A9F4"/></svg>
